X:1
T:Es ticu
T:aranž. Andris Solims
T:Es ticu
T:(tautas melodija ar kori)*
C:aranž. Andris Solims
%%score { ( 1 2 6 ) | ( 3 4 5 ) }
L:1/8
M:4/4
K:F
V:1 treble nm="P1"
V:2 treble 
V:6 treble 
V:3 bass 
V:4 bass 
V:5 bass 
V:1
!f!"^Svinīgi" F16 F2 E2 F2 G4 F4 | F16 | F16 F2 E2 F2 D4 !fermata!C4 || %3
w: * 1.~Es~ticu~uz~vienu~Dievu,~|~vis- re- no Tē- vu,|debesu~un~zemes,~~||* visu~~~redzamo~~~un~~~neredzamo~~~lie- Ra- dī- tā- ju.|
!mf! A16 A16 A2 G2 A2 B4 A4 | A16 A2 G2 F2 G4 !fermata!F4 ||!f! F16 F2 E2 F2 G4 F4 | %6
w: * 2.~Es~ticu~uz~vienu~Kungu~Jēzu~Kristu,~| vienpiedzimu- Die- va Dē- lu,|* pirms~~~~~visiem~~~~~mūžiem~~~~~no~~~~~Tē- dzem- dī- nā- tu,|* 3.~Dievu~no~Dieva, gais- no * gais-|
 F16 F2 E2 F2 D4 !fermata!C4 ||!mf! A16 A2 G2 A2 B2 B2 A4 | A16 A2 A2 G2 F2 G4 !fermata!F4 || %9
w: patiesu~Dievu~no * pa- tie- * Die-|4.~dzemdi- nā- tu, ne ra- dī- tu,|* būtībā~līdzīgu~Tēvam,~un~caur ru viss ir ra- dīts,|
!mf! A16 A2 G2 G2 G4 A4 | A2 A2 G2 A2 =B2 B2 !fermata!c4 ||!p! A16 A2 G2 A2 B2 B2 A4 | %12
w: * 5.~un~kurš~mūsu~dēļ~un~mūsu~pes- ša- nas la- bā|ir nā- cis no de- be- sīm,|* 6.~iemiesojies~caur~Svēto~Garu~no na- vas * * Ma-|
 A4 G2 F2"^dim." G4 !fermata!F4 ||!mf!"^Alti (melodija)"!f! d16 d2 ^c2 d2 e4 d4 | %14
w: un ta- pis cil- vēks,|* 7.~krustā~sists~par~mums~Pontija lā- ta lai- kā,|
 d4 =c2 d2 =B2 B2 !fermata!A4 ||!mf! A16 A2 G2 A2 B4 A4 | A2 A2 G2 F2 G4 !fermata!F4 || %17
w: cie- tis un ap- be- dīts,|8.~trešajā~~~die- nā aug- šām- cē- lies,|kā pra- vie- tots Rak- stos,|
!mf!"^Alti (mel.)"!f! A4 G2 A2 B2 A2 A4 | A16 A2 G2 A2 F4 !fermata![EG]4 || %19
w: 9.~uz- kā- pis de- be- sīs,|sēž~pie~Tē- va la- bās ro- kas|
!mf! F16 F2 E2 F2 G2 G2 F4 | F2 F2 F2 F16 F2 E2 D2 (E2 G2) !fermata!A4 || %21
w: 10.~un~~~atkal~~~godībā~~~atnāks~~~tiesāt dzī- vos un mi- ru- šos,|un vi- ņa valdīša- nai ne- būs ga- * la.|
!mf!"^Alti (melodija)"!f! x12 F2 A2 B2 c2 d2 f2 f2 e2 d2 d4 c4 | d16 d4 c2 A2 B4 !fermata!A4 || %23
w: |kas~~~~~~no~~~~~Tēva un Dē- la iz- iet,|
"^Alti (melodija)"!mf!!f! c16 c2 B2 c2 d4 c4 | c16 c2 B2 A2 B2 c2 !fermata![Ac]4 || %25
w: 12.~kas~ar~Tēvu~un~Dēlu~tiek~līdzīgi pie- lūgts un sla- vēts,|kas~~~~~~~~~ir~~~~~~~~~~ru- nā- jis caur pra- vie- šiem.|
!mf! D16 D2 ^C2 D2 E2 D2 D4 | D16 D2 C2 D2 (D2 F2) !fermata!E4 ||!ff! A16 A2 G2 A2 B2 B2 A4 | %28
w: * 13.~Es~ticu~uz~vienu,~svētu,~katolisku~un~apus- lis- ku Baz- nī- cu,|es~~~atzīstu~~~vienu~~~kristību~~~grē- ku pie- do- ša- * nai,|14.~gaidu~miru- šo aug- šām- cel- ša- nos|
"^rit." A16 A4"^lēnām" G2 F2 G4 !fermata!F4 |] %29
w: * un~dzīvi~nākamajā mū- * žī- bā.|
V:2
 C16 C2 C2 C2 C4 C4 | C16 | D16 D2 C2 D2 =B,4 C4 || F16 F16 F2 E2 F2 G4 F4 | F16 F2 E2 D2 C4 C4 || %5
 F16 F2 E2 F2 G4 F4 | F16 F2 E2 F2 D4 C4 || A16 A2 G2 A2 B2 B2 A4 | A16 A2 A2 G2 F2 G4 F4 || %9
 F16 F2 E2 E2 E4 F4 | F2 F2 E2 F2 G2 F2 E4 || F16 F2 E2 F2 G2 E2 F4 | F4 E2 F2 (E2 G2) F4 || %13
 F16 F2 E2 F2 G4 F4 | F4 E2 F2 D2 D2 C4 || F16 F2 E2 _E2 (D2 =E2) F4 | F2 F2 D2 D2 E4 C4 || %17
 F4 E2 F2 G2 F2 F4 | F16 F2 E2 F2 D4 C4 || F16 F2 E2 F2 G2 G2 F4 | F2 F2 F2 F16 F2 E2 D2 E4 F4 || %21
 x12 F2 F2 F2 F2 F2 F2 F2 E2 F2 G4 F4 | F16 F4 E2 F2 D4 C4 || A16 A2 G2 A2 B4 A4 | %24
 A16 A2 G2 F2 G2 G2 F4 || A,16 A,2 A,2 A,2 A,2 A,2 A,4 | B,16 B,2 G,2 A,2 =B,4 C4 || %27
 F16 F2 C2 (CF) F2 E2 F4 | F16 (F2 C2) B,2 (A,D) (F2 E2) [CF]4 |] %29
V:3
!f! A,16 A,2 G,2 A,2 B,4 A,4 | A,16 | A,16 A,2 G,2 A,2 G,4 [E,G,]4 ||!mf! C16 D16 D2 C2 C2 C4 C4 | %4
w: ||||
w: ||||
 C16 C2 B,2 A,2 B,4 A,4 || %5
w: |
w: |
"^* Katrā pantā attiecīgā balss izpilda melodiju (f), kura sastāv no diviem motīviem. Pārējās balsis dzied tekstu fonā (mf). Šo aranžējumu var izmantot arī kā pavadījumu, dziedot \"Es ticu\" vienbalsīgi, kurā nepāra pantus var dziedāt vīrieši, bet pāra - sievietes."!f! A,16 A,2 G,2 A,2 B,4 A,4 | %6
w: |
w: |
 A,16 A,2 G,2 A,2 G,2 F,2 E,4 ||!mf! C16 C2 B,2 C2 D2 _D2 C4 | C16 C2 C2 B,2 A,2 B,4 A,4 || %9
w: |||
w: |||
!mf!"^Basi (melodija)"!f! C16 C2 C2 C2 C4 C4 | D2 D2 C2 C2 D2 D2 C4 ||!p! D16 D2 ^C2 D2 D2 =C2 C4 | %12
w: |||
w: |||
 C4 B,2 A,B, C2 B,2 A,4 ||!mf! A,16 A,2 G,2 A,2 B,2 A,2 A,4 | A,4 A,2 A,2 ^G,2 G,2 A,4 || %15
w: |||
w: |||
!mf! C16 C2 C2 C2 B,2 C2 C4 | C2 A,2 G,2 G,2 G,2 B,2 A,4 || %17
w: ||
w: ||
!mf!"^Basi (melodija)"!f! C4 C2 C2 C2 C2 C4 | C16 C2 C2 C2 A,2 [G,=B,]2 [G,C]4 || %19
w: ||
w: ||
"^Tenori (melodija)"!f!!mf! A,16 A,2 G,2 A,2 B,2 B,2 A,4 | A,2 A,2 A,2 A,16 A,2 G,2 F,2 G,4 F,4 || %21
w: ||
w: ||
!mf! A,2 C2 _B,2 A,2 A,2 B,2 C2 _E2 D2 C2 B,2 D2 D2 C2 B,2 B,4 A,4 | %22
w: |
w: 11.~Es ti- cu uz Svē- to Ga- ru, Kun- gu un At- dzī- vi- nā- tā- ju,|
 B,16 B,4 A,2 A,2 G,2 E,2 F,4 ||!mf! F,16 F,2 E,2 F,2 G,2 E,2 F,4 | %24
w: ||
w: ||
 A,16 A,2 G,2 F,2 G,2 [E,B,]2 [F,A,]4 ||!f!"^Tenori (melodija)"!mf! F,16 F,2 E,2 F,2 G,2 F,2 F,4 | %26
w: ||
w: ||
 F,16 F,2 E,2 F,2 D,4 C,4 ||!ff! C16 C2 C2 A,C D2 CB, C4 | C16 C2 _E2 D2 CB, D2 CB, A,4 |] %29
w: |||
w: |||
V:4
 F,16 F,2 C,2 C,2 E,4 F,4 | F,16 | D,16 D,2 C,2 =B,,2 G,,4 !fermata!C,4 || %3
 F,16 D,16 D,2 C,2 F,2 E,4 F,4 | F,16 F,2 C,2 D,2 E,4 !fermata!F,4 || F,16 F,2 C,2 C,2 E,4 F,4 | %6
 D,16 D,2 C,2 D,2 G,,4 !fermata!C,4 || F,16 F,2 C,2 F,2 G,2 E,2 F,4 | %8
 F,16 F,2 F,2 C,2 D,2 C,4 !fermata!F,4 || F,16 F,2 E,2 F,2 G,4 F,4 | %10
 F,2 F,2 E,2 F,2 D,2 D,2 !fermata!C,4 || D,16 D,2 E,2 F,2 G,2 G,2 F,4 | %12
 D,4 ^C,2 C,D, [=C,E,]4 !fermata!F,4 || D,16 D,2 E,2 F,2 G,2 A,2 D,4 | %14
 =B,,4 C,2 D,2 E,2 E,2 !fermata![A,,E,]4 || F,16 F,2 C,2 F,2 G,4 F,4 | %16
 F,2 D,2 B,,2 =B,,2 C,4 !fermata!F,4 || F,4 E,2 F,2 G,2 F,2 F,4 | %18
 F,16 F,2 E,2 F,2 D,4 !fermata!C,4 || F,16 F,2 C,2 F,2 E,2 C,2 F,4 | %20
 F,2 E,2 D,2 F,16 D,2 B,,2 =B,,2 C,4 !fermata![F,,F,]4 || %21
 F,2 A,2 G,2 F,2 F,2 G,2 A,2 C2 B,2 A,2 G,2 B,2 B,2 G,2 F,2 =E,4 F,4 | %22
 B,,16 B,,4 C,2 D,2 G,,4 !fermata![F,,F,]4 || F,,16 [F,,F,]2 C,2 A,,2 G,,2 C,2 [F,,F,]4 | %24
 D,16 D,2 G,,2 A,,B,, C,2 C,2 !fermata![F,,F,]4 || D,16 D,2 A,,2 A,,2 ^C,2 D,2 D,4 | %26
 B,,16 B,,2 G,,2 F,,2 G,,4 !fermata!C,4 || F,16 F,2 E,2 F,A, G,3 G, F,4 | %28
 D,16 F,2 ^F,2 G,B, A,=F, B,,2 C,2 !fermata![F,,F,]4 |] %29
V:5
 x30 | x16 | x16 x6 G,2 F,2 x4 || x46 | x30 || x30 | x30 || x30 | x32 || x30 | x16 || x30 | %12
 x6 =C,2 x8 || x30 | x16 || x30 | x16 || x16 | x30 || x30 | x36 || x38 | x16 x8 G,,2 C,2 x4 || %23
 x30 | x30 || x30 | x30 || x30 | x32 |] %29
V:6
 x30 | x16 | x30 || x46 | x30 || x30 | x30 || x30 | x32 || x30 | x16 || x30 | x16 || x30 | x16 || %15
 x30 | x16 || x16 | x16 x6 (F2 G2) x4 || x30 | x36 || x38 | x32 || x30 | x30 || x30 | x30 || x30 | %28
 x32 |] %29

